src/actions/24/labplot-xy-interpolation-curve.svg

<svg xmlns="http://www.w3.org/2000/svg" viewBox="0 0 24 24">
    <path d="m10.217 5.834-3.186 8.49.938.352 2.816-7.508 6.518 2.793.394-.92-7.48-3.207Z" style="fill:currentColor;fill-opacity:1;stroke:none;color:#a0b6cb" transform="translate(1 1)"/>
    <path d="M4 3v14H3v1h1v1h1v-1h14v-1H5V3H4zm6 2v1h1V5h-1zm1 1v1h1V6h-1zm0 1h-1v1h1V7zm-1 0V6H9v1h1zm7 1v1h1V8h-1zm1 1v1h1V9h-1zm0 1h-1v1h1v-1zm-1 0V9h-1v1h1zM7 13v1h1v-1H7zm1 1v1h1v-1H8zm0 1H7v1h1v-1zm-1 0v-1H6v1h1z" style="fill:currentColor;fill-opacity:1;stroke:none;color:#050505;opacity:.7" transform="translate(1 1)"/>
</svg>

<svg xmlns="http://www.w3.org/2000/svg" viewBox="0 0 24 24">
  <defs id="defs3051">
    <style type="text/css" id="current-color-scheme">
      .ColorScheme-Text {
        color:#363636;
      }
      .ColorScheme-Highlight {
        color:#3daee9;
      }
      </style>
  </defs><g transform="translate(1,1)">
 <path 
     style="fill:currentColor;fill-opacity:1;stroke:none" 
     d="M 10.216797,5.8339844 7.03125,14.324219 7.96875,14.675781 10.785156,7.1679688 17.302734,9.9609375 17.697266,9.0410156 10.216797,5.8339844 Z"
     class="ColorScheme-Highlight"
     />
 <path 
     style="fill:currentColor;fill-opacity:1;stroke:none" 
     d="M 4 3 L 4 17 L 3 17 L 3 18 L 4 18 L 4 19 L 5 19 L 5 18 L 19 18 L 19 17 L 5 17 L 5 3 L 4 3 z M 10 5 L 10 6 L 11 6 L 11 5 L 10 5 z M 11 6 L 11 7 L 12 7 L 12 6 L 11 6 z M 11 7 L 10 7 L 10 8 L 11 8 L 11 7 z M 10 7 L 10 6 L 9 6 L 9 7 L 10 7 z M 17 8 L 17 9 L 18 9 L 18 8 L 17 8 z M 18 9 L 18 10 L 19 10 L 19 9 L 18 9 z M 18 10 L 17 10 L 17 11 L 18 11 L 18 10 z M 17 10 L 17 9 L 16 9 L 16 10 L 17 10 z M 7 13 L 7 14 L 8 14 L 8 13 L 7 13 z M 8 14 L 8 15 L 9 15 L 9 14 L 8 14 z M 8 15 L 7 15 L 7 16 L 8 16 L 8 15 z M 7 15 L 7 14 L 6 14 L 6 15 L 7 15 z "
     class="ColorScheme-Text"
     />
</g></svg>
